!!!COA:	Josquin des Prez
!!!CDT:	~1450-1521/08/27
!!!OPR:	Missa Quem dicunt homines
!!!ONM:	4
!!!OTL:	Sanctus
!!!AGN:	Mass; Sanctus
!!!SCT:	NJE 10.3
!!!SCA:	New Josquin Edition 10.3
!!!voices:	4
!!!voices-OPR:	4-5
**kern	**kern	**kern	**kern
*staff4	*staff3	*staff2	*staff1
*Ivox	*Ivox	*Ivox	*Ivox
*I"Bassus	*I"Tenor	*I"Altus	*I"Superius
*I'B	*I'T	*I'A	*I'S
*>[A,B,C,D]	*>[A,B,C,D]	*>[A,B,C,D]	*>[A,B,C,D]
*>A	*>A	*>A	*>A
*clefF4	*clefGv2	*clefGv2	*clefG2
*k[]	*k[]	*k[]	*k[]
*M2/1	*M2/1	*M2/1	*M2/1
*met(C|)	*met(C|)	*met(C|)	*met(C|)
!!section: Sanctus and Pleni
!!!OMD: Sanctus and Pleni
=1-	=1-	=1-	=1-
0r	0r	2.G/	0r
.	.	4A/	.
.	.	2B\	.
.	.	[2c\	.
=2	=2	=2	=2
0r	0r	4c\]	2.g/
.	.	4d\	.
.	.	4e\	.
.	.	4f\	4a/
.	.	2d\	2b\
.	.	2c\	[2cc\
=3	=3	=3	=3
0r	2.c\	1e	4cc\]
.	.	.	4b\
.	.	.	2g/
.	4B\	.	.
.	2A/	2f\	2a/
.	2G/	2g\	2b\
=4	=4	=4	=4
1r	1c	1e	2.g/
.	.	.	4a/
2.G\	2.B\	1d	4b\
.	.	.	4cc\
.	.	.	[2dd\
4A\	4c\	.	.
=5	=5	=5	=5
2B\	2d\	0g	2dd\]
2.c\	1e	.	1cc
4B\	.	.	.
2G\	2d\	.	2b\
=6	=6	=6	=6
2A\	2c\	0r	2a/
2B\	2d\	.	2.g/
2.G\	2.B\	.	.
.	.	.	4f/
.	.	.	2d/
4F\	4A/	.	.
=7	=7	=7	=7
2E\	2G/	1r	2e/
2D\	2A/	.	2f/
[1G	[1B	2.g\	1d
.	.	4f\	.
=8	=8	=8	=8
0G]	1B]	2e\	2r
.	.	2d\	2.dd\
.	2r	1g	.
.	.	.	4cc\
.	[2d\	.	2b\
=9	=9	=9	=9
1r	4d\]	2f\	2a/
.	4c\	.	.
.	2B\	2g\	2dd\
2.F\	2A/	2a\	2cc\
.	[2d\	[2f\	[2a/
4E\	.	.	.
=10	=10	=10	=10
2D\	2d\]	2f\]	4a/]
.	.	.	4b\
2C/	2G/	1e	1cc
1F	1A	.	.
.	.	2d\	4b\
.	.	.	4a/
=11	=11	=11	=11
1E	2r	[0e	[0g
.	2B\	.	.
2r	2c\	.	.
2E\	2B\	.	.
=12	=12	=12	=12
2C/	2.c\	0e]	0g]
2C/	.	.	.
.	8B\L	.	.
.	8c\J	.	.
1E	2B\	.	.
.	2G/	.	.
=13	=13	=13	=13
1G	2.d\	2r	2r
.	.	2g\	2b\
.	8c\L	.	.
.	8B\J	.	.
2F\	2A/	2a\	2cc\
2G\	[2d\	2g\	2b\
=14	=14	=14	=14
1A	2d\]	2.e\	2.cc\
.	2c\	.	.
.	.	4f\	8b\L
.	.	.	8cc\J
2.G\	4d\	2g\	2b\
.	4c\	.	.
.	4B\	2d\	[2g/
4F\	4A/	.	.
=15	=15	=15	=15
2E\	1G	2e\	2g/]
2C/	.	2.g\	2cc\
2.E\	2r	.	2b\
.	.	4f\	.
.	[2G/	2e\	4g/
4F\	.	.	4a/
=16	=16	=16	=16
2.G\	4G/]	1d	4b\
.	4A/	.	4cc\
.	4B\	.	2.dd\
4A\	4c\	.	.
2B\	2d\	2r	.
.	.	.	4cc\
2c\	2e\	2g\	[2cc\
=17	=17	=17	=17
1G	1d	2g\	2cc\]
.	.	2g\	2b\
2r	1c	2.e\	1cc
2c\	.	.	.
.	.	4f\	.
=18	=18	=18	=18
2c\	0r	1g	2r
2c\	.	.	2cc\
2.A\	.	2r	2cc\
.	.	4c\	2cc\
4B\	.	4d\	.
=19	=19	=19	=19
4c\	2r	4e\	2.a/
4B\	.	4c\	.
4A\	2c\	2.f\	.
4G\	.	.	4b\
1A	2c\	.	4cc\
.	.	4e\	4b\
.	2c\	[2e\	4a/
.	.	.	4g/
=20	=20	=20	=20
1F	2.A/	2e\]	1a
.	.	2d\	.
.	4B\	.	.
2E\	4c\	1e	1g
.	4B\	.	.
2E\	4B\	.	.
.	8A/L	.	.
.	8G/J	.	.
=21	=21	=21	=21
2.F\	1A	2r	1f
.	.	2.c\	.
4E\	.	.	.
1C	1G	.	2.e/
.	.	4B\	.
.	.	4c\	.
.	.	4d\	4f/
=22	=22	=22	=22
0r	2r	2e\	2g/
.	4F/	1f	1a
.	4G/	.	.
.	4A/	.	.
.	4B\	.	.
.	2c\	2e\	2g/
=23	=23	=23	=23
0r	4A/	1a	1cc
.	4B\	.	.
.	4c\	.	.
.	4d\	.	.
.	2e\	[1g	2b\
.	4c\	.	[2ee\
.	4d\	.	.
=24	=24	=24	=24
2r	4e\	1g]	2ee\]
.	4f\	.	.
2G\	2g\	.	2dd\
2A\	2e\	1r	1cc
2F\	4f\	.	.
.	4e\	.	.
=25	=25	=25	=25
1G	4d\	1r	1b
.	4c\	.	.
.	2.d\	.	.
2C/	.	2r	1r
.	4c\	.	.
2E\	[2c\	2g\	.
=26	=26	=26	=26
1D	4c\]	2a\	2r
.	4B\	.	.
.	4B\	2f\	2dd\
.	4A/	.	.
1C	1c	2.g\	2ee\
.	.	.	2cc\
.	.	8f\L	.
.	.	8e\J	.
=27	=27	=27	=27
0r	0r	4d\	1dd
.	.	4e\	.
.	.	4f\	.
.	.	4d\	.
.	.	4e\	2g/
.	.	4f\	.
.	.	[2g\	2b\
=28	=28	=28	=28
1r	1.d	2g\]	1a
.	.	2f#i\	.
1G	.	1g	1g
.	2e\	.	.
=29	=29	=29	=29
2A\	2c\	2e\	1r
2F\	2.d\	2f\	.
1G	.	1d	2r
.	4G/	.	.
.	[2G/	.	2dd\
=30	=30	=30	=30
2C/	2G/]	2r	2ee\
2E\	1c	2e\	2cc\
1D	.	2f\	1dd
.	2B\	2d\	.
=31	=31	=31	=31
2C/	2e\	2.g\	2g/
2G\	2d\	.	2b\
.	.	4f\	.
2A\	2c\	2e\	1a
2F\	[2d\	2f\	.
=32	=32	=32	=32
1G	4d\]	2d\	2g/
.	4G/	.	.
.	1G	1g	2dd\
2C/	.	.	2ee\
2E\	[2c\	4f\	2cc\
.	.	4e\	.
=33	=33	=33	=33
1D	4c\]	1f	1dd
.	4B\	.	.
.	4B\	.	.
.	4A/	.	.
1Cl	1cl	1el	1gl
!!LO:LB:i:g=z
=34||	=34||	=34||	=34||
*>B	*>B	*>B	*>B
*clefF4	*clefGv2	*clefGv2	*clefG2
*k[]	*k[]	*k[]	*k[]
*M3/1	*M3/1	*M3/1	*M3/1
*met(C|3)	*met(C|3)	*met(C|3)	*met(C|3)
!!section: Osanna
!!!OMD: Osanna
1.G	0.d	0.g	0.r
2A\	.	.	.
1B	.	.	.
=35	=35	=35	=35
1c	0.e	1a	1r
1G	.	0g	1r
[1c	.	.	1cc
=36	=36	=36	=36
2c\]	0c	0e	1.cc
2B\	.	.	.
2A\	.	.	.
2G\	.	.	2b\
1F	1c	1f	1a
=37	=37	=37	=37
1G	1B	1d	1g
0A	0c	2c\	0cc
.	.	2d\	.
.	.	2e\	.
.	.	2f\	.
=38	=38	=38	=38
0G	1.d	1.g	0b
.	2B\	2d\	.
1r	1c	1e	1r
=39	=39	=39	=39
0.G	0.B	1d	1.g
.	.	0g	.
.	.	.	2a/
.	.	.	1b
=40	=40	=40	=40
0.A	1r	1.e	1cc
.	1r	.	1a
.	.	2d\	.
.	1c	1e	[1cc
=41	=41	=41	=41
0F	1.c	1.f	2cc\]
.	.	.	2b\
.	.	.	2a/
.	2B\	2e\	2g/
1F	1A	2c\	1f
.	.	2d\	.
=42	=42	=42	=42
1E	1G	1e	1g
0F	0c	1A	0a
.	.	2f\	.
.	.	2e\	.
=43	=43	=43	=43
1.G	1.B	2d\	[0.g
.	.	2c\	.
.	.	1.d	.
2F\	2A/	.	.
1G	1B	.	.
.	.	2c\	.
=44	=44	=44	=44
1E	0G	0c	1g]
0D	.	.	0dd
.	1F	1B	.
=45	=45	=45	=45
*M2/1	*M2/1	*M2/1	*M2/1
*met(C|)	*met(C|)	*met(C|)	*met(C|)
1C	2G/	1c	1ee
.	2.g\	.	.
2.c\	.	2r	1cc
.	4f\	.	.
.	4e\	4c\	.
4B\	4d\	4d\	.
=46	=46	=46	=46
2A\	2c\	4e\	2cc\
.	.	4f\	.
2G\	1e	2.g\	2b\
1A	.	.	1cc
.	.	4f#i\	.
.	4d\	4f#i\	.
.	4c\	4e\	.
=47	=47	=47	=47
1G	2.B\	2g\	2.dd\
.	.	4G/	.
.	4c\	4A/	4cc\
2r	2d\	4B\	2b\
.	.	4G/	.
4C/	[2e\	[2c\	2a/
4D\	.	.	.
=48	=48	=48	=48
4E\	2e\]	2c\]	1g
4F\	.	.	.
1G	2d\	2B\	.
.	2e\	2.c\	2r
2F\	2f\	.	2a/
.	.	4d\	.
=49	=49	=49	=49
2G\	2.d\	2B\	2b\
4D\	.	2A/	1dd
4E\	4c\	.	.
4F\	4A/	[1a	.
4G\	4B\	.	.
2A\	2c\	.	[2cc\
=50	=50	=50	=50
2F\	2A/	2a\]	2cc\]
2G\	2B\	4g\	2b\
.	.	4f\	.
2.A\	1c	2e\	4a/
.	.	.	4b\
.	.	2a\	4cc\
4B\	.	.	4dd\
=51	=51	=51	=51
2c\	2r	2g\	2ee\
4F\	2.c\	1a	1ff
4G\	.	.	.
4A\	.	.	.
4B\	4d\	.	.
[2c\	4e\	4g\	2ee\
.	4f\	4f\	.
=52	=52	=52	=52
2c\]	2g\	2e\	2cc\
2B\	4G/	2d\	2.dd\
.	4A/	.	.
2.G\	4B\	2g\	.
.	4c\	.	4cc\
.	2d\	4G/	4b\
4F\	.	4A/	4a/
=53	=53	=53	=53
2E\	2e\	4B\	2g/
.	.	4c\	.
2D\	4A/	2d\	2f/
.	4B\	.	.
1C	4c\	2G/	2e/
.	4d\	.	.
.	4e\	2g\	4c/
.	4f\	.	4d/
=54	=54	=54	=54
1r	2g\	4c\	4e/
.	.	4d\	4f/
.	[2G/	4e\	4g/
.	.	4f\	4a/
2.G\	4G/]	[1gl	4b\
.	4A/	.	4cc\
.	4B\	.	[2dd\
4A\	4c\	.	.
=55	=55	=55	=55
2B\	2d\	0g_	4dd\]
.	.	.	4cc\
2c\	2e\	.	1cc
1G	1d	.	.
.	.	.	2b\
=56	=56	=56	=56
0Cl	0cl	0g]	0ccl
!!LO:LB:i:g=z
=57||	=57||	=57||	=57||
*>C	*>C	*>C	*>C
*clefF4	*clefGv2	*clefGv2	*clefG2
*k[]	*k[]	*k[]	*k[]
*M2/1	*M2/1	*M2/1	*M2/1
*met(C|)	*met(C|)	*met(C|)	*met(C|)
!!section: Adoramus te Christe
!!!OMD: Adoramus te Christe
1.C	1.G	1.e	1.cc
2C/	2G/	2e\	2cc\
=58	=58	=58	=58
1F	1A	1f	1cc
1G	1B	2.d\	1b
.	.	4e\	.
=59	=59	=59	=59
0A	0c	2f\	0a
.	.	2e\	.
.	.	1e	.
=60	=60	=60	=60
0F	2.f\	0a	[0cc
.	4e\	.	.
.	2c\	.	.
.	[2f\	.	.
=61	=61	=61	=61
0c	2f\]	[0gl	0cc]
.	4e\	.	.
.	4d\	.	.
.	1e	.	.
=62	=62	=62	=62
00G	00d	00g]	00b
=63	=63	=63	=63
1C	1c	1e	1g
[1C	[1c	[1e	1g
=64	=64	=64	=64
2C/]	2c\]	2e\]	2g/
2E\	2B\	2e\	2g/
2D\	2d\	2f\	2a/
2C/	2e\	2g\	[2cc\
=65	=65	=65	=65
2.F\	1f	1a	4cc\]
.	.	.	4b\
.	.	.	1a
4G\	.	.	.
4A\	[1e	1r	.
4B\	.	.	.
[2c\	.	.	2g/
=66	=66	=66	=66
2c\]	2e\]	1.g	1cc
4B\	4d\	.	.
4A\	4c\	.	.
2G\	2d\	.	2b\
2A\	[2c\	4f\	[2a/
.	.	4e\	.
=67	=67	=67	=67
2F\	2c\]	2f\	4a/]
.	.	.	4g/
2G\	2B\	2d\	1g
2C/	2c\	2e\	.
[2F\	[2A/	[2d\	2f/
=68	=68	=68	=68
4F\]	4A/]	2d\]	1.a
4E\	4G/	.	.
4D\	4F/	1c	.
4C/	4E/	.	.
1D	1F	.	.
.	.	2B\	4g/
.	.	.	4f/
=69	=69	=69	=69
0C;	0G;	0c;	0e;
=70	=70	=70	=70
0r	0r	1g	0r
.	.	2f\	.
.	.	2e\	.
=71	=71	=71	=71
0r	1c	1g	0r
.	2B\	2d\	.
.	2A/	[2e\	.
=72	=72	=72	=72
0r	1c	4e\]	1cc
.	.	4d\	.
.	.	1g	.
.	2G/	.	2b\
.	[2A/	2f\	2a/
=73	=73	=73	=73
1r	4A/]	1e	1cc
.	4G/	.	.
.	1c	.	.
1G	.	[1d	1g
.	2B\	.	.
=74	=74	=74	=74
2F\	2A/	2d\]	1r
2E\	2.e\	2c\	.
1G	.	2.B\	1g
.	4d\	.	.
.	[2d\	.	.
.	.	8A/L	.
.	.	8G/J	.
=75	=75	=75	=75
2D\	4d\]	2A/	2f/
.	4c\	.	.
1E	4B\	2G/	2e/
.	4A/	.	.
.	2B\	2r	1g
2C/	2c\	2g\	.
=76	=76	=76	=76
1.G	1.B	1g	2d/
.	.	.	1dd
.	.	1g	.
4F\	4A/	.	2cc\
4E\	4G/	.	.
=77	=77	=77	=77
0D	1A	[0f	2.dd\
.	.	.	8cc\L
.	.	.	8b\J
.	2r	.	1a
.	2d\	.	.
=78	=78	=78	=78
2r	1d	0f]	2r
2D\	.	.	2a/
1D	1d	.	1a
=79	=79	=79	=79
1F	[0c	1.f	1a
[1C	.	.	[1g
.	.	4e\	.
.	.	4d\	.
=80	=80	=80	=80
1C]	0c]	1e	1g]
[1F	.	[1a	[1f
=81	=81	=81	=81
2F\]	1r	2a\]	2f/]
2G\	.	4g\	4e/
.	.	4f\	4d/
2A\	2.c\	2e\	2c/
2F\	.	2f\	2cc\
.	4d\	.	.
=82	=82	=82	=82
1.c	2e\	2g\	1cc
.	2c\	1e	.
.	[1g	.	1cc
4B\	.	4d\	.
4A\	.	4c\	.
=83	=83	=83	=83
0G	2g\]	1d	0b
.	4f\	.	.
.	4e\	.	.
.	2d\	2r	.
.	2e\	2G/	.
=84	=84	=84	=84
1.F	2.f\	1A	1.a
.	4e\	.	.
.	2c\	2A/	.
4E\	2d\	2B\	4g/
4D\	.	.	4f/
=85	=85	=85	=85
2C/	1G	1c	4e/
.	.	.	4d/
2E\	.	.	1g
1D	1A	1d	.
.	.	.	2f#i/
=86	=86	=86	=86
1G	1B	1d	[0gl
1C	1c	1e	.
=87	=87	=87	=87
0Gl	0Bl	0dl	0g]
!!LO:LB:i:g=z
=88||	=88||	=88||	=88||
*>D	*>D	*>D	*>D
*clefF4	*clefGv2	*clefGv2	*clefG2
*k[]	*k[]	*k[]	*k[]
*M2/1	*M2/1	*M2/1	*M2/1
*met(C|)	*met(C|)	*met(C|)	*met(C|)
!!section: Benedictus/Osanna II
!!!OMD: Benedictus/Osanna II
0r	0r	0r	1.cc
.	.	.	2b\
=89	=89	=89	=89
1r	0r	0r	1a
[1c	.	.	2.g/
.	.	.	4f/
=90	=90	=90	=90
2c\]	1r	0r	2e/
2B\	.	.	2d/
1A	2r	.	1c
.	2c\	.	.
=91	=91	=91	=91
2.G\	2B\	1.g	0r
.	4G/	.	.
4F\	4A/	.	.
2E\	4B\	.	.
.	4c\	.	.
2D\	2d\	2f\	.
=92	=92	=92	=92
1C	1G	1e	2r
.	.	.	2g/
1r	1r	2.d\	2f/
.	.	.	4d/
.	.	4c\	4e/
=93	=93	=93	=93
2r	1r	2B-\	4f/
.	.	.	4g/
2c\	.	2A/	2a/
2B\	[1g	1G	2d/
4G\	.	.	[2dd\
4A\	.	.	.
=94	=94	=94	=94
4B\	2g\]	0r	4dd\]
4c\	.	.	4cc\
2d\	2f\	.	2a/
[1G	1e	.	2b\
.	.	.	[2g/
=95	=95	=95	=95
1G]	2.d\	0r	2g/]
.	.	.	4f/
.	4c\	.	4e/
2r	2B\	.	2d/
[2c\	2A/	.	[2e/
=96	=96	=96	=96
2c\]	1G	1r	4e/]
.	.	.	4d/
2B\	.	.	1g
1A	1r	2r	.
.	.	2c\	2f#i/
=97	=97	=97	=97
2.G\	2r	2B\	1g
.	1g	4G/	.
4F\	.	4A/	.
2E\	.	4B\	1r
.	.	4c\	.
2D\	2f\	2d\	.
=98	=98	=98	=98
1C	1e	2G/	1r
.	.	2g\	.
1r	2.d\	2f\	[1dd
.	.	4d\	.
.	4c\	4e\	.
=99	=99	=99	=99
1r	2B\	4f\	2dd\]
.	.	4g\	.
.	2A/	2a\	2cc\
2r	2G/	2.d\	1b
2G\	2B\	.	.
.	.	4e\	.
=100	=100	=100	=100
2F\	2c\	2.f\	2.a/
4D\	1d	.	.
4E\	.	4g\	4g/
4F\	.	[1a	2f/
4G\	.	.	.
2A\	2c\	.	2e/
=101	=101	=101	=101
1D	1f	0a_	2d/
.	.	.	1dd
[1A	[1f	.	.
.	.	.	2cc\
=102	=102	=102	=102
0A_	1f]	1a]	4a/
.	.	.	4b\
.	.	.	4cc\
.	.	.	4dd\
.	[1c	2r	2ee\
.	.	2f\	2a/
=103	=103	=103	=103
1A]	1c]	2e\	1.cc
.	.	4c\	.
.	.	4d\	.
1r	2r	4e\	.
.	.	4f\	.
.	2G/	2g\	2b\
=104	=104	=104	=104
2r	4A/	2.c\	1a
.	4B\	.	.
2F\	4c\	.	.
.	4d\	8B/L	.
.	.	8A/J	.
2E\	2.e\	4B\	2.g/
.	.	4G/	.
4C/	.	[2c\	.
4D\	4f\	.	4f/
=105	=105	=105	=105
4E\	[0g	2c\]	2e/
4F\	.	.	.
2G\	.	2B\	2d/
1C	.	1e	2c/
.	.	.	[2cc\
=106	=106	=106	=106
0G	1g]	[0d	2cc\]
.	.	.	4b\
.	.	.	4a/
.	2r	.	1b
.	2G/	.	.
=107	=107	=107	=107
1D	2A/	1d]	1a
.	2F/	.	.
2E\	2.G/	1r	1r
2C/	.	.	.
.	4A/	.	.
=108	=108	=108	=108
2D\	4B\	1r	0r
.	4c\	.	.
1F	2.d\	.	.
.	.	2r	.
.	4c\	.	.
2E\	[2c\	2G/	.
=109	=109	=109	=109
1D	2c\]	2A/	2r
.	2B\	2F/	2d/
1C	2c\	2.G/	2e/
.	[2G/	.	2c/
.	.	4A/	.
=110	=110	=110	=110
1G	4G/]	4B\	2.d/
.	4A/	4c\	.
.	4B\	1d	.
.	4c\	.	4e/
2r	2d\	.	4f/
.	.	.	4g/
2A\	2e\	[2c\	[2a/
=111	=111	=111	=111
2F\	2f\	2c\]	2a/]
2G\	1e	2B\	1g
1A	.	1c	.
.	4d\	.	2f#i/
.	4c\	.	.
=112	=112	=112	=112
0G	0B	0d	0g
=113	=113	=113	=113
1C	0e	0g	0cc
1C	.	.	.
=114	=114	=114	=114
0F	0f	0a	1.cc
.	.	.	4b\
.	.	.	4a/
=115	=115	=115	=115
1G	1.d	1g	1b
[1A	.	[1e	[1a
.	4c\	.	.
.	4B\	.	.
=116	=116	=116	=116
1A]	1c	1e]	0a_
2.D\	[1d	[1f	.
4E\	.	.	.
=117	=117	=117	=117
4F\	2d\]	2f\]	1a]
4G\	.	.	.
1A	2c\	2e\	.
.	1B-	2f\	2r
2G\	.	2g\	2d/
=118	=118	=118	=118
2.F\	1A	0c	1f
4E\	.	.	.
2C/	2G/	.	2.e/
[2c\	2A/	.	.
.	.	.	4f/
=119	=119	=119	=119
4c\]	1.c	2r	2g/
4B\	.	.	.
4A\	.	2e\	1a
4G\	.	.	.
2F\	.	2f\	.
2G\	2B\	[2e\	[2g/
=120	=120	=120	=120
1A	1c	2e\]	2g/]
.	.	4d\	2f#i/
.	.	4c\	.
[1G	2.d\	2B\	2.g/
.	.	[2d\	.
.	4c\	.	4a/
=121	=121	=121	=121
2G\]	2B\	4d\]	2b\
.	.	4G/	.
4F\	4A/	1c	2cc\
4E\	4G/	.	.
1D	2A/	.	4dd\
.	.	.	4ee\
.	2F/	2B\	4ff\
.	.	.	4dd\
=122	=122	=122	=122
1C	2G/	1c	2.ee\
.	2.g\	.	.
.	.	.	8dd\L
.	.	.	8cc\J
2.G\	.	2r	2b\
.	4f\	.	.
.	2d\	2g\	[2dd\
4F\	.	.	.
=123	=123	=123	=123
2D\	2f\	2a\	4dd\]
.	.	.	4cc\
2E\	2e\	2g\	1cc
2F\	1d	2a\	.
2G\	.	2g\	2b\
=124	=124	=124	=124
2.A\	[0cl	1e	1.a
4G\	.	.	.
2F\	.	1f	.
4E\	.	.	4g/
4D\	.	.	4f/
=125	=125	=125	=125
0Cl	0c]	0gl	0el
==	==	==	==
*-	*-	*-	*-
!!!RDF**kern: l=long note in original notation
!!!RDF**kern: i=editorial accidental
!!!RDF**kern: V=start of tuplet marker
!!!RDF**kern: Z=end of tuplet marker
!!!ENC:	Jesse Rodin (May 2013)
!!!END:	2013/05/09/
!!!EED:	Jesse Rodin
!!!EEV:	2013/05/09/
!!attribution-level@Jos: 4 (questionable)
!!!ONB:	Translated from MusicXML and edited on 2013/05/09/ by Craig Sapp
!!muse2ps: T^@{OPR}^u^@{ONM}{. }@{OTL}^C^@{COA}?\n@{SCT}^i2I150v85,85,85,150Q8c120
